icons/ubuntu-mono-dark/onboard-panel.svg

<?xml version="1.0" encoding="UTF-8" standalone="no"?>
<svg id="svg2" xmlns:rdf="http://www.w3.org/1999/02/22-rdf-syntax-ns#" xmlns="http://www.w3.org/2000/svg" height="22" width="22" version="1.1" xmlns:cc="http://creativecommons.org/ns#" xmlns:dc="http://purl.org/dc/elements/1.1/">
 <metadata id="metadata16">
  <rdf:RDF>
   <cc:Work rdf:about="">
    <dc:format>image/svg+xml</dc:format>
    <dc:type rdf:resource="http://purl.org/dc/dcmitype/StillImage"/>
    <dc:title>Full Keyboard-Alpha.svg</dc:title>
    <cc:license rdf:resource="https://www.gnu.org/licenses/gpl.txt"/>
    <dc:creator>
     <cc:Agent>
      <dc:title>Onboard Devel Team at https://launchpad.net/~onboard</dc:title>
     </cc:Agent>
    </dc:creator>
    <dc:rights>
     <cc:Agent>
      <dc:title>GPL-3+ license</dc:title>
     </cc:Agent>
    </dc:rights>
    <dc:publisher>
     <cc:Agent>
      <dc:title>Onboard Devel Team</dc:title>
     </cc:Agent>
    </dc:publisher>
    <dc:source>https://launchpad.net/onboard</dc:source>
    <dc:relation>This file is part of Onboard</dc:relation>
    <dc:contributor>
     <cc:Agent>
      <dc:title>Copyright © 2016, Francesco Fumanti &lt;francesco.fumanti@gmx.net&gt;
Copyright © 2012, Gerd Kohlberger &lt;lowfi@chello.at&gt;</dc:title>
     </cc:Agent>
    </dc:contributor>
   </cc:Work>
  </rdf:RDF>
 </metadata>
 <path id="rect3012" style="fill:#dfdbd2" d="m3 2c-0.554 0-1 0.446-1 1v6c0 0.554 0.446 1 1 1h6c0.554 0 1-0.446 1-1v-6c0-0.554-0.446-1-1-1h-6zm1 1h4c0.554 0 1 0.446 1 1v4c0 0.554-0.446 1-1 1h-4c-0.554 0-1-0.446-1-1v-4c0-0.554 0.446-1 1-1z"/>
 <path id="path3790" style="fill:#dfdbd2" d="m13 2c-0.554 0-1 0.446-1 1v6c0 0.554 0.446 1 1 1h6c0.554 0 1-0.446 1-1v-6c0-0.554-0.446-1-1-1h-6zm1 1h4c0.554 0 1 0.446 1 1v4c0 0.554-0.446 1-1 1h-4c-0.554 0-1-0.446-1-1v-4c0-0.554 0.446-1 1-1z"/>
 <path id="path3794" style="fill:#dfdbd2" d="m3 12c-0.554 0-1 0.446-1 1v6c0 0.554 0.446 1 1 1h6c0.554 0 1-0.446 1-1v-6c0-0.554-0.446-1-1-1h-6zm1 1h4c0.554 0 1 0.446 1 1v4c0 0.554-0.446 1-1 1h-4c-0.554 0-1-0.446-1-1v-4c0-0.554 0.446-1 1-1z"/>
 <path id="path3798" style="fill:#dfdbd2" d="m13 12c-0.554 0-1 0.446-1 1v6c0 0.554 0.446 1 1 1h6c0.554 0 1-0.446 1-1v-6c0-0.554-0.446-1-1-1h-6zm1 1h4c0.554 0 1 0.446 1 1v4c0 0.554-0.446 1-1 1h-4c-0.554 0-1-0.446-1-1v-4c0-0.554 0.446-1 1-1z"/>
</svg>

<?xml version="1.0" encoding="UTF-8" standalone="no"?>
<svg
   xmlns:dc="http://purl.org/dc/elements/1.1/"
   xmlns:cc="http://creativecommons.org/ns#"
   xmlns:rdf="http://www.w3.org/1999/02/22-rdf-syntax-ns#"
   xmlns:svg="http://www.w3.org/2000/svg"
   xmlns="http://www.w3.org/2000/svg"
   version="1.1"
   width="22"
   height="22"
   id="svg2">
  <metadata
     id="metadata16">
    <rdf:RDF>
      <cc:Work
         rdf:about="">
        <dc:format>image/svg+xml</dc:format>
        <dc:type
           rdf:resource="http://purl.org/dc/dcmitype/StillImage" />
        <dc:title>Full Keyboard-Alpha.svg</dc:title>
        <cc:license
           rdf:resource="https://www.gnu.org/licenses/gpl.txt" />
        <dc:creator>
          <cc:Agent>
            <dc:title>Onboard Devel Team at https://launchpad.net/~onboard</dc:title>
          </cc:Agent>
        </dc:creator>
        <dc:rights>
          <cc:Agent>
            <dc:title>GPL-3+ license</dc:title>
          </cc:Agent>
        </dc:rights>
        <dc:publisher>
          <cc:Agent>
            <dc:title>Onboard Devel Team</dc:title>
          </cc:Agent>
        </dc:publisher>
        <dc:source>https://launchpad.net/onboard</dc:source>
        <dc:relation>This file is part of Onboard</dc:relation>
        <dc:contributor>
          <cc:Agent>
            <dc:title>Copyright © 2016, Francesco Fumanti &lt;francesco.fumanti@gmx.net&gt;
Copyright © 2012, Gerd Kohlberger &lt;lowfi@chello.at&gt;</dc:title>
          </cc:Agent>
        </dc:contributor>
      </cc:Work>
    </rdf:RDF>
  </metadata>
  <defs
     id="defs14" />
  <path
     d="M 3,2 C 2.446,2 2,2.446 2,3 l 0,6 c 0,0.554 0.446,1 1,1 l 6,0 c 0.554,0 1,-0.446 1,-1 L 10,3 C 10,2.446 9.554,2 9,2 L 3,2 z M 4,3 8,3 C 8.554,3 9,3.446 9,4 L 9,8 C 9,8.554 8.554,9 8,9 L 4,9 C 3.446,9 3,8.554 3,8 L 3,4 C 3,3.446 3.446,3 4,3 z"
     id="rect3012"
     style="fill:#dfdbd2;fill-opacity:1;stroke:none" />
  <path
     d="m 13,2 c -0.554,0 -1,0.446 -1,1 l 0,6 c 0,0.554 0.446,1 1,1 l 6,0 c 0.554,0 1,-0.446 1,-1 L 20,3 C 20,2.446 19.554,2 19,2 l -6,0 z m 1,1 4,0 c 0.554,0 1,0.446 1,1 l 0,4 c 0,0.554 -0.446,1 -1,1 L 14,9 C 13.446,9 13,8.554 13,8 l 0,-4 c 0,-0.554 0.446,-1 1,-1 z"
     id="path3790"
     style="fill:#dfdbd2;fill-opacity:1;stroke:none" />
  <path
     d="m 3,12 c -0.554,0 -1,0.446 -1,1 l 0,6 c 0,0.554 0.446,1 1,1 l 6,0 c 0.554,0 1,-0.446 1,-1 l 0,-6 C 10,12.446 9.554,12 9,12 l -6,0 z m 1,1 4,0 c 0.554,0 1,0.446 1,1 l 0,4 c 0,0.554 -0.446,1 -1,1 L 4,19 C 3.446,19 3,18.554 3,18 l 0,-4 c 0,-0.554 0.446,-1 1,-1 z"
     id="path3794"
     style="fill:#dfdbd2;fill-opacity:1;stroke:none" />
  <path
     d="m 13,12 c -0.554,0 -1,0.446 -1,1 l 0,6 c 0,0.554 0.446,1 1,1 l 6,0 c 0.554,0 1,-0.446 1,-1 l 0,-6 c 0,-0.554 -0.446,-1 -1,-1 l -6,0 z m 1,1 4,0 c 0.554,0 1,0.446 1,1 l 0,4 c 0,0.554 -0.446,1 -1,1 l -4,0 c -0.554,0 -1,-0.446 -1,-1 l 0,-4 c 0,-0.554 0.446,-1 1,-1 z"
     id="path3798"
     style="fill:#dfdbd2;fill-opacity:1;stroke:none" />
</svg>
